X:169
T: DER REINSTE TON
N: B0657
O: Europa, Mitteleuropa, Deutschland, Rheinland, Mosel
R: Moral - Lied, religioes
M: 4/4
L: 1/16
K: C
C2E2F2 | G6E2D2C2B,2C2 | D8z2
D2E2F2 | B6A2G2F2D3D | E8z2
D2D2D2 | B6D2E2D2c3B | A8z2
c2d2c2 | B6G2B3Ac2^F2 | G8z2
G2A2B2 | c6B2A2G2F2E2 | D8z2
F2E2D2 | G6G2A2A2G2D2 | E8z2
G2A2B2 | c6B2d2c2G2E2 | D4A4z2
c2B2A2 | A2G2C2D2E4D4 | C8z2

@@@ Tune index: 2387
